!! 00046] TT[KA
!! NN
!!!OTL: Bai ling niao
!!!ARE: Xinjiang, Kuche (SÅd)
!! Ethnic Group: Weiwuer
!! IV, 442
!!!SCT: C0428A
!!!YEM: Copyright 1995, estate of Helmut Schaffrath.
**kern
*ICvox
*Ivox
*M2/4
*k[]
*C:
{8r
16cc
16cc
16b
16g
16a
16f
=1
16g
32f
32g
16.e
32d
[4d}
=2
{16d]
16dd
16cc
16cc
16b
16g
16a
16f
=3
16g
32f
32g
16e
16d
[4d}
=4
{16d]
16dd
16cc
16cc
16b
16g
16a
16f
=5
16g
32f
32g
16.e
32d
[4d
=6
16d]
16r}
{16a
16b
16dd
16cc
16ee
[16dd
=7
16dd]
32a
32a
16cc
16b
16cc
[8.a
=8
16a]
16r}
{16a
16b
16dd
16cc
16ee
[16dd
=9
16dd]
16a
16cc
16b
16cc
[8.a
=10
16a]
16r}
{16a
16b
16dd
16cc
16ee
[16dd
=11
16dd]
32a
32a
16a
16a
16cc
32b
32dd
16cc
16b
=12
16a
16g
16cc
16b
16cc
[8.a
=13
16a]
16r}
{16cc
16cc
16.b
32b
16cc
[16a
=14
16a]
32g
32a
16g
16f
8e
16f
[16d
=15
16d]}
{16d
16e
16f
16a
16g
16a
16dd
=16
32cc
32dd
16b
16a
16g
16a
16f
32f
32g
[16e
=17
16e]}
{16c
16c
16d
16e
16f
16g
32e
32g
=18
16f
16d
16.d
32d
[4d
=19
16d]
8.r
4r}
==
!!!AGN: Aiqing gequ
!! Der Titel bezieht sich auf einen wichtigen Ort an der
!!    Seidenstrasse.
!!    +++Das Lied wurde GETEILT!!! Der zweite Teil ist im folgenden Dokument
!!    unter gleicher Signatur B kodiert.
!!    Vereinzelt Verzierungen, Glissando. Vor- und Zwischenspiele weggelas-
!!    sen. Die 7 wird z.T. tiefer gesungen.
!!!ONB: ESAC (Essen Associative Code) Database: CHINA
!!!AMT: simple duple
!!!AIN: vox
!!!EED: Helmut Schaffrath
!!!EEV: 1.0
*-
!!!ONB: Tied note syntax fixed by Craig Sapp, 2004/05/03/
